X: 770
T: Missa Laudate Dominum Et resurrexit Credo
C: Giovanni Perluigi da Palestrina
L: 1/4
M: 3/2
N: Derived from Credo_80_c.krn
Q: "Credo"
%%staves [1 2 3 4]
V: 1 clef=treble
V: 2 clef=treble
V: 3 clef=treble-8
V: 4 clef=bass
K: F
[V:1] A,2F,2B,2 | 
[V:2] z4z2 | 
[V:3] c2A2d2 | 
[V:4] F,4z2 | 
[V:1] A,3B,/ C/D2 | 
[V:2] E2C2F2 | 
[V:3] cBAGFD | 
[V:4] z4z2 | 
[V:1] C3D/ E/F2 | 
[V:2] E4D2 | 
[V:3] A4D2 | 
[V:4] z4z2 | 
[V:1] E2>F2D2 | 
[V:2] C2>A,2=B,2 | 
[V:3] A2>F2G2 | 
[V:4] z4z2 | 
[V:1] C2D4 | 
[V:2] C3=B,/ A,/B,2 | 
[V:3] A2G4 | 
[V:4] z4z2 | 
[V:1] E4E2 | 
[V:2] C4C2 | 
[V:3] C4G2 | 
[V:4] z2z2C,2 | 
[V:1] F2B,4 | 
[V:2] D4B,2 | 
[V:3] B2F2G2 | 
[V:4] B,,4G,,2 | 
[V:1] C2D2C2
[V:2] A,2G,4
[V:3] F2>D2E2
[V:4] A,,2B,,2C,2

